!!!OTL: ES WOLLT EIN JUNGFRAU FRUEH AUFSTEHN
!!!ARE: Europa, Mitteleuropa, Deutschland, Hessen, Unter - Taunus, Hennethal;     Limburg,
!!Herungen
!!!SCT: E2125
!!!YEM: Copyright 1995, estate of Helmut Schaffrath.
**kern
*ICvox
*Ivox
*M4/4
*k[f#]
*G:
{4d
=1
4.g
8a
8b
8a
8g
8a
=2
4.dd
8b
4dd}
{8b
8dd
=3
4cc
4b
4a
4g
=4
2a
4r}
{8a
8b
=5
4cc
4b
4a
4g
=6
4f#
8g
8b
4a}
{8cc
8ee
=7
4dd
4b
4dd
8dd
8cc
=8
2b
4r}
==
!!!AGN: geistlich, Heiligen - Lied
!!!ONB: ESAC (Essen Associative Code) Database: ERK3
!!!AMT: simple quadruple
!!!AIN: vox
!!!EED: Helmut Schaffrath
!!!EEV: 1.0
*-
!!!title: @{OTL} [@{SCT}]
